src/assets/loading/loadingAnimation100.svg

<svg width="327" height="185" viewBox="0 0 327 185" fill="none" xmlns="http://www.w3.org/2000/svg">
<path d="M58.9912 118.203L61.229 110.764C66.2085 112.263 71.1302 113.383 75.839 114.098L74.6817 121.785C69.5973 121.005 64.3332 119.803 58.9912 118.203ZM43.9866 112.733C39.316 110.753 34.5007 108.447 29.6702 105.873L33.3137 99.0034C37.9498 101.466 42.5666 103.675 47.0297 105.581L43.9866 112.733ZM15.9689 97.9806C11.6891 95.3283 7.26343 92.3904 2.81679 89.2799L7.27364 82.9063C11.5991 85.9323 15.9035 88.7858 20.0701 91.3702L15.9689 97.9806ZM90.859 122.805L90.6292 115.036C95.6301 114.893 100.527 114.231 105.176 113.068L107.053 120.612C101.865 121.899 96.4175 122.64 90.859 122.805ZM122.236 115.585L119.472 108.33C123.956 106.627 128.58 104.686 133.592 102.429L136.789 109.508C131.633 111.824 126.865 113.824 122.236 115.585ZM150.938 102.792L147.513 95.8104C149.561 94.8076 151.581 93.8084 153.588 92.8048C156.241 91.4948 158.861 90.2005 161.46 88.9263L164.868 95.9158C162.274 97.1778 159.67 98.4642 157.034 99.7663C155.022 100.782 153.003 101.781 150.938 102.792ZM178.815 89.4578L175.733 82.3234C181.098 79.9997 185.954 78.1408 190.585 76.6419L192.981 84.0408C188.573 85.4541 183.94 87.2275 178.815 89.4578ZM207.463 80.4411L206.195 72.7703C211.703 71.8589 216.996 71.4756 222.372 71.5897L222.2 79.3662C217.315 79.2621 212.486 79.618 207.463 80.4411ZM273.835 97.1427C270.786 95.2039 267.725 93.4123 264.739 91.7985L268.44 84.9628C271.576 86.6576 274.794 88.5465 277.988 90.5785L273.835 97.1427ZM236.855 81.1083L238.478 73.5049C242.553 74.379 246.723 75.5624 250.872 77.0403C250.884 77.0446 250.884 77.0446 250.896 77.049C251.897 77.4054 252.905 77.7784 253.917 78.1801L251.101 85.4272C250.146 85.0594 249.256 84.7012 248.259 84.3735C244.445 83.0008 240.612 81.9104 236.855 81.1083Z" fill="#F4831F"/>
<path d="M299.796 129.005L288.297 84.9371L293.577 83.4715L305.075 127.539L299.796 129.005Z" fill="#F4831F"/>
<path d="M275.941 114.802L274.58 109.588L317.418 97.6915L318.779 102.905L275.941 114.802Z" fill="#F4831F"/>
</svg>

<?xml version="1.0" encoding="UTF-8"?>
<svg id="Layer_1" xmlns="http://www.w3.org/2000/svg" version="1.1" viewBox="0 0 327 185">
  <!-- Generator: Adobe Illustrator 29.3.1, SVG Export Plug-In . SVG Version: 2.1.0 Build 151)  -->
  <defs>
    <style>
      .st0 {
        fill: #f4831f;
      }
    </style>
  </defs>
  <path class="st0" d="M59,118.2l2.2-7.4c5,1.5,9.9,2.6,14.6,3.3l-1.2,7.7c-5.1-.8-10.3-2-15.7-3.6ZM44,112.7c-4.7-2-9.5-4.3-14.3-6.9l3.6-6.9c4.6,2.5,9.3,4.7,13.7,6.6l-3,7.2ZM16,98c-4.3-2.7-8.7-5.6-13.2-8.7l4.5-6.4c4.3,3,8.6,5.9,12.8,8.5l-4.1,6.6ZM90.9,122.8l-.2-7.8c5-.1,9.9-.8,14.5-2l1.9,7.5c-5.2,1.3-10.6,2-16.2,2.2ZM122.2,115.6l-2.8-7.3c4.5-1.7,9.1-3.6,14.1-5.9l3.2,7.1c-5.2,2.3-9.9,4.3-14.6,6.1ZM150.9,102.8l-3.4-7c2-1,4.1-2,6.1-3,2.7-1.3,5.3-2.6,7.9-3.9l3.4,7c-2.6,1.3-5.2,2.5-7.8,3.9-2,1-4,2-6.1,3ZM178.8,89.4l-3.1-7.1c5.4-2.3,10.2-4.2,14.9-5.7l2.4,7.4c-4.4,1.4-9,3.2-14.2,5.4ZM207.5,80.4l-1.3-7.7c5.5-.9,10.8-1.3,16.2-1.2l-.2,7.8c-4.9-.1-9.7.3-14.7,1.1ZM273.8,97.1c-3-1.9-6.1-3.7-9.1-5.3l3.7-6.8c3.1,1.7,6.4,3.6,9.5,5.6l-4.2,6.6ZM236.9,81.1l1.6-7.6c4.1.9,8.2,2.1,12.4,3.5t0,0c1,.4,2,.7,3,1.1l-2.8,7.2c-1-.4-1.8-.7-2.8-1.1-3.8-1.4-7.6-2.5-11.4-3.3Z"/>
  <path class="st0" d="M299.8,129l-11.5-44.1,5.3-1.5,11.5,44.1-5.3,1.5Z"/>
  <path class="st0" d="M275.9,114.8l-1.4-5.2,42.8-11.9,1.4,5.2-42.8,11.9Z"/>
</svg>
